X:12
T:Engelska fr\aa{}n Bohusl\"an
R:Engelska
O:Sweden
Q:84
M:2/4
L:1/16
K:D
Adce dcBA | FDDD D4 | Adce dfeg | fddd d2G2 | \
Adce dcBA | FDDD D4 | 
Adce dfeg | fddd d4 :: \
Adcd Adcd | Adcd edcd | 
Bece Bece | Bece fecd | \
Adcd Adcd | Adcd edcd | BABc dcde | f2dd d4 :|
